src/module-aos_contracts.svg

<?xml version="1.0" encoding="UTF-8"?>
<svg xmlns="http://www.w3.org/2000/svg" xmlns:xlink="http://www.w3.org/1999/xlink" width="1024pt" height="1024pt" viewBox="0 0 1024 1024" version="1.1">
<g id="surface1">
<path style=" stroke:none;fill-rule:evenodd;fill:rgb(0%,0%,0%);fill-opacity:1;" d="M 159.484375 12.046875 C 153.894531 13.132812 149.878906 18.046875 150.003906 23.675781 L 150.003906 1000.371094 C 150.003906 1006.789062 155.234375 1012 161.679688 1012 L 862.320312 1012 C 868.765625 1012 873.996094 1006.789062 873.996094 1000.371094 L 873.996094 186.457031 C 874.0625 183.371094 872.90625 180.332031 870.710938 178.101562 L 707.230469 15.316406 C 704.988281 13.132812 701.9375 11.984375 698.835938 12.046875 L 161.679688 12.046875 C 160.949219 11.984375 160.214844 11.984375 159.484375 12.046875 Z M 173.359375 35.300781 L 687.160156 35.300781 L 687.160156 186.457031 C 687.160156 192.875 692.390625 198.085938 698.835938 198.085938 L 850.644531 198.085938 L 850.644531 988.746094 L 173.359375 988.746094 Z M 710.515625 51.65625 L 834.214844 174.828125 L 710.515625 174.828125 Z M 266.777344 174.828125 C 260.332031 174.828125 255.097656 180.039062 255.097656 186.457031 C 255.097656 192.875 260.332031 198.085938 266.777344 198.085938 L 593.742188 198.085938 C 600.1875 198.085938 605.417969 192.875 605.417969 186.457031 C 605.417969 180.039062 600.1875 174.828125 593.742188 174.828125 Z M 266.777344 314.359375 C 260.332031 314.359375 255.097656 319.566406 255.097656 325.984375 C 255.097656 332.402344 260.332031 337.613281 266.777344 337.613281 L 757.222656 337.613281 C 763.671875 337.613281 768.902344 332.402344 768.902344 325.984375 C 768.902344 319.566406 763.671875 314.359375 757.222656 314.359375 Z M 266.777344 453.886719 C 260.332031 453.886719 255.097656 459.09375 255.097656 465.515625 C 255.097656 471.933594 260.332031 477.140625 266.777344 477.140625 L 757.222656 477.140625 C 763.671875 477.140625 768.902344 471.933594 768.902344 465.515625 C 768.902344 459.09375 763.671875 453.886719 757.222656 453.886719 Z M 266.777344 593.414062 C 260.332031 593.414062 255.097656 598.625 255.097656 605.042969 C 255.097656 611.460938 260.332031 616.667969 266.777344 616.667969 L 757.222656 616.667969 C 763.671875 616.667969 768.902344 611.460938 768.902344 605.042969 C 768.902344 598.625 763.671875 593.414062 757.222656 593.414062 Z M 544.835938 721.316406 C 540.945312 721.984375 537.660156 724.585938 536.085938 728.214844 L 479.894531 862.65625 L 439.007812 872.828125 C 432.6875 874.410156 428.859375 880.765625 430.507812 887.011719 C 432.144531 893.308594 438.589844 897.058594 444.863281 895.371094 L 491.574219 883.742188 C 495.214844 882.828125 498.191406 880.285156 499.589844 876.828125 L 546.300781 764.910156 L 582.796875 864.84375 C 586.316406 874.097656 599.160156 875.015625 603.957031 866.300781 L 651.039062 781.996094 L 688.25 865.574219 C 690.570312 870.71875 696.285156 873.496094 701.765625 872.113281 L 748.472656 860.488281 C 754.796875 858.90625 758.625 852.550781 756.976562 846.300781 C 755.339844 840.007812 748.894531 836.257812 742.621094 837.945312 L 705.40625 847.03125 L 662.714844 751.46875 C 658.824219 742.757812 646.648438 742.152344 641.914062 750.382812 L 595.9375 832.859375 L 557.976562 728.945312 C 556.09375 723.5 550.503906 720.292969 544.835938 721.316406 Z M 544.835938 721.316406 "/>
</g>
</svg>

<?xml version="1.0" encoding="UTF-8" standalone="no"?>
<svg
   xmlns:dc="http://purl.org/dc/elements/1.1/"
   xmlns:cc="http://creativecommons.org/ns#"
   xmlns:rdf="http://www.w3.org/1999/02/22-rdf-syntax-ns#"
   xmlns:svg="http://www.w3.org/2000/svg"
   xmlns="http://www.w3.org/2000/svg"
   xmlns:sodipodi="http://sodipodi.sourceforge.net/DTD/sodipodi-0.dtd"
   xmlns:inkscape="http://www.inkscape.org/namespaces/inkscape"
   width="1024"
   height="1024"
   viewBox="0 0 1024 1024"
   version="1.1"
   id="svg2"
   inkscape:version="0.91 r13725"
   sodipodi:docname="module-contracts.svg">
  <metadata
     id="metadata15">
    <rdf:RDF>
      <cc:Work
         rdf:about="">
        <dc:format>image/svg+xml</dc:format>
        <dc:type
           rdf:resource="http://purl.org/dc/dcmitype/StillImage" />
        <dc:title>acc_aos_contracts</dc:title>
      </cc:Work>
    </rdf:RDF>
  </metadata>
  <sodipodi:namedview
     pagecolor="#ffffff"
     bordercolor="#666666"
     borderopacity="1"
     objecttolerance="10"
     gridtolerance="10"
     guidetolerance="10"
     inkscape:pageopacity="0"
     inkscape:pageshadow="2"
     inkscape:window-width="1920"
     inkscape:window-height="1015"
     id="namedview13"
     showgrid="false"
     inkscape:zoom="0.49166667"
     inkscape:cx="336.46371"
     inkscape:cy="245.45761"
     inkscape:window-x="0"
     inkscape:window-y="0"
     inkscape:window-maximized="1"
     inkscape:current-layer="svg2" />
  <!-- Generator: Sketch 3.8.3 (29802) - http://www.bohemiancoding.com/sketch -->
  <title
     id="title4">acc_aos_contracts</title>
  <desc
     id="desc6">Created with Sketch.</desc>
  <defs
     id="defs8" />
  <path
     style="fill:#000000;fill-rule:evenodd;stroke:none;stroke-width:1;fill-opacity:1"
     d="m 159.48481,12.046516 0,0 c -5.58955,1.085221 -9.60655,5.999721 -9.48199,11.627366 l 0,976.698718 c 0,6.4183 5.23144,11.6274 11.67733,11.6274 l 700.64004,0 c 6.44589,0 11.67733,-5.2091 11.67733,-11.6274 l 0,-813.91559 c 0.0634,-3.08514 -1.08999,-6.12375 -3.28533,-8.3562 L 707.22951,15.317682 c -2.24205,-2.185945 -5.2936,-3.333178 -8.392,-3.271166 l -537.15736,0 c -0.73177,-0.06202 -1.46357,-0.06202 -2.19534,0 l 0,0 z m 13.87268,23.254733 513.80268,0 0,151.155761 c 0,6.4183 5.23148,11.62736 11.67734,11.62736 l 151.80534,0 0,790.6609 -677.28536,0 0,-953.444021 z m 537.15735,16.355827 123.70191,123.172564 -123.70191,0 0,-123.172564 z M 266.77616,174.82964 c -6.44589,0 -11.67733,5.20906 -11.67733,11.62737 0,6.4183 5.23144,11.62736 11.67733,11.62736 l 326.96534,0 c 6.44592,0 11.67733,-5.20906 11.67733,-11.62736 0,-6.41831 -5.23141,-11.62737 -11.67733,-11.62737 l -326.96534,0 z m 0,139.5284 c -6.44589,0 -11.67733,5.20906 -11.67733,11.62736 0,6.41831 5.23144,11.62737 11.67733,11.62737 l 490.44802,0 c 6.44589,0 11.67733,-5.20906 11.67733,-11.62737 0,-6.4183 -5.23144,-11.62736 -11.67733,-11.62736 l -490.44802,0 z m 0,139.52839 c -6.44589,0 -11.67733,5.20906 -11.67733,11.62736 0,6.41831 5.23144,11.62737 11.67733,11.62737 l 490.44802,0 c 6.44589,0 11.67733,-5.20906 11.67733,-11.62737 0,-6.4183 -5.23144,-11.62736 -11.67733,-11.62736 l -490.44802,0 z m 0,139.52839 c -6.44589,0 -11.67733,5.20906 -11.67733,11.62737 0,6.4183 5.23144,11.62736 11.67733,11.62736 l 490.44802,0 c 6.44589,0 11.67733,-5.20906 11.67733,-11.62736 0,-6.41831 -5.23144,-11.62737 -11.67733,-11.62737 l -490.44802,0 z m 278.0607,127.90103 0,0 c -3.89246,0.66674 -7.17769,3.27127 -8.75023,6.89891 l -56.19133,134.44335 -40.88625,10.17006 c -6.32134,1.58132 -10.15148,7.93764 -8.5011,14.18539 1.63483,6.29429 8.08071,10.04604 14.35535,8.35622 l 46.70933,-11.62737 c 3.64333,-0.91457 6.61715,-3.45721 8.01843,-6.91443 l 46.70933,-111.91725 36.49558,99.93333 c 3.51875,9.25538 16.36381,10.17005 21.15933,1.4574 l 47.08301,-84.30618 37.21176,83.57751 c 2.31979,5.14707 8.03401,7.92213 13.51458,6.54236 l 46.70934,-11.62737 c 6.3213,-1.58132 10.15147,-7.93764 8.50109,-14.18539 -1.63482,-6.29429 -8.08071,-10.04604 -14.35534,-8.35622 l -37.21176,9.08486 -42.69234,-95.56143 c -3.89245,-8.71289 -16.06801,-9.31751 -20.80123,-1.08534 l -45.97757,82.4768 -37.95911,-103.91766 c -1.88406,-5.44161 -7.47349,-8.65076 -13.14087,-7.62755 l 0,0 z"
     id="Page-1-Copy-2"
     inkscape:connector-curvature="0" />
</svg>
